X:1495
T: Shannon Pilot
C: BB
L: 1/8
M: 4/4
R: reel
Q: 1/4=175
K: Ador
"Am"A2 cA eAcA|"G" dB ~B2 "Em"EFGB|"Am"A2 cA eAce|"D"affa "G"gdBG|
"Am"A2 cA eAcA|"G" dB ~B2 "Em"EFGB|"Am"ABce "Em7"dBGE|"Am" (3ABc "G"BG "Am"A4 :|
"Am" e2 ag eage|"G"dB ~B2 "Em"GEGB|"Am"Acea "D"fddc|"Em"BGEG "Am"A4|
"Am" e2 ag eage|"G"dB ~B2 "Em"GEGB|"Am"AE ~E2 "D"AF ~F2|"G"GBdB "Am"A4 :|
